images/phone-icon.svg

<svg width="15" height="15" viewBox="0 0 15 15" fill="none" xmlns="http://www.w3.org/2000/svg">
<path d="M11.8611 9.29199C11.5535 8.97223 11.1826 8.80128 10.7894 8.80128C10.3995 8.80128 10.0254 8.96907 9.70514 9.28882L8.70328 10.2861C8.62085 10.2417 8.53841 10.2006 8.45915 10.1594C8.34502 10.1024 8.23722 10.0486 8.14528 9.99164C7.20682 9.39646 6.35397 8.62083 5.53599 7.61725C5.13968 7.11705 4.87336 6.69599 4.67996 6.2686C4.93994 6.03117 5.1809 5.78423 5.41551 5.54679C5.50428 5.45815 5.59306 5.36634 5.68183 5.2777C6.34763 4.61287 6.34763 3.75176 5.68183 3.08693L4.81629 2.22266C4.71801 2.12452 4.61655 2.02321 4.52144 1.9219C4.33121 1.72562 4.13147 1.52301 3.92539 1.33305C3.61786 1.02913 3.25009 0.867676 2.86329 0.867676C2.47649 0.867676 2.10238 1.02913 1.78533 1.33305C1.78216 1.33622 1.78216 1.33622 1.77899 1.33939L0.701036 2.42527C0.295217 2.8305 0.0637733 3.32437 0.013046 3.89739C-0.0630451 4.82181 0.209615 5.68292 0.418865 6.24644C0.93248 7.62992 1.69973 8.91208 2.84427 10.2861C4.23293 11.9418 5.90376 13.2493 7.81238 14.1705C8.54158 14.5156 9.51492 14.924 10.6024 14.9937C10.669 14.9968 10.7387 15 10.8021 15C11.5345 15 12.1496 14.7372 12.6315 14.2149C12.6346 14.2085 12.641 14.2054 12.6442 14.199C12.809 13.9996 12.9993 13.8191 13.199 13.626C13.3353 13.4962 13.4748 13.3601 13.6112 13.2176C13.925 12.8915 14.0899 12.5116 14.0899 12.1222C14.0899 11.7297 13.9219 11.3529 13.6016 11.0364L11.8611 9.29199ZM12.9961 12.6256C12.9929 12.6256 12.9929 12.6288 12.9961 12.6256C12.8724 12.7586 12.7456 12.8789 12.6093 13.0119C12.4032 13.2081 12.194 13.4139 11.9974 13.645C11.6772 13.9869 11.2999 14.1484 10.8053 14.1484C10.7577 14.1484 10.707 14.1484 10.6595 14.1452C9.71783 14.0851 8.84278 13.7178 8.18649 13.4044C6.39201 12.537 4.81629 11.3055 3.50689 9.7447C2.42577 8.44354 1.7029 7.24052 1.22416 5.94885C0.929309 5.16056 0.821513 4.54639 0.86907 3.96704C0.900775 3.59663 1.04345 3.28955 1.30659 3.02678L2.38772 1.94723C2.54307 1.8016 2.70794 1.72245 2.86963 1.72245C3.06937 1.72245 3.23106 1.84276 3.33252 1.94406C3.33569 1.94723 3.33886 1.95039 3.34203 1.95356C3.53543 2.13401 3.71931 2.3208 3.91271 2.52025C4.011 2.62155 4.11245 2.72286 4.21391 2.82733L5.07944 3.69161C5.41551 4.02719 5.41551 4.33744 5.07944 4.67302C4.9875 4.76483 4.89873 4.85664 4.80678 4.94528C4.54046 5.21754 4.28683 5.47081 4.011 5.71775C4.00466 5.72408 3.99831 5.72725 3.99514 5.73358C3.72248 6.00584 3.77321 6.27177 3.83028 6.45222C3.83345 6.46172 3.83662 6.47122 3.83979 6.48072C4.06489 7.02524 4.38194 7.53811 4.86385 8.14912L4.86702 8.15228C5.74207 9.22867 6.66467 10.0676 7.68239 10.7103C7.81238 10.7926 7.94554 10.8591 8.07236 10.9224C8.18649 10.9794 8.29429 11.0332 8.38623 11.0902C8.39891 11.0965 8.4116 11.106 8.42428 11.1123C8.53207 11.1662 8.63353 11.1915 8.73815 11.1915C9.0013 11.1915 9.16617 11.0269 9.22006 10.973L10.3044 9.89033C10.4122 9.78269 10.5834 9.65289 10.7831 9.65289C10.9797 9.65289 11.1414 9.77636 11.2396 9.884C11.2428 9.88716 11.2428 9.88716 11.246 9.89033L12.9929 11.6347C13.3195 11.9576 13.3195 12.29 12.9961 12.6256Z" fill="#949494"/>
<path d="M8.10725 3.56805C8.93792 3.70735 9.69249 4.09991 10.2949 4.70142C10.8973 5.30293 11.2872 6.0564 11.4299 6.88585C11.4648 7.0948 11.6455 7.24043 11.8516 7.24043C11.8769 7.24043 11.8991 7.23726 11.9245 7.2341C12.1591 7.19611 12.3145 6.9745 12.2764 6.74023C12.1052 5.73665 11.6296 4.82173 10.9036 4.09675C10.1776 3.37177 9.26131 2.89689 8.25627 2.72594C8.02165 2.68795 7.80289 2.84307 7.76167 3.07418C7.72046 3.30529 7.87264 3.53006 8.10725 3.56805Z" fill="#949494"/>
<path d="M14.9935 6.6168C14.7113 4.96423 13.9314 3.46045 12.7329 2.26376C11.5345 1.06707 10.0285 0.288276 8.37355 0.00651577C8.14211 -0.0346402 7.92335 0.123652 7.88213 0.354759C7.84409 0.589031 7.99944 0.807474 8.23405 0.84863C9.71149 1.09873 11.0589 1.79838 12.1305 2.86527C13.2022 3.93533 13.8997 5.28081 14.1501 6.75609C14.185 6.96504 14.3657 7.11067 14.5718 7.11067C14.5972 7.11067 14.6194 7.1075 14.6447 7.10434C14.8762 7.06951 15.0347 6.8479 14.9935 6.6168Z" fill="#949494"/>
</svg>

<svg width="15" height="15" fill="none" xmlns="http://www.w3.org/2000/svg"><path d="M11.861 9.292c-.308-.32-.678-.49-1.072-.49-.39 0-.764.167-1.084.487l-1.002.997c-.082-.044-.165-.085-.244-.127-.114-.057-.222-.11-.314-.167-.938-.596-1.791-1.371-2.609-2.375-.396-.5-.663-.921-.856-1.348.26-.238.5-.485.736-.722l.266-.27c.666-.664.666-1.525 0-2.19l-.866-.864c-.098-.098-.2-.2-.295-.301-.19-.196-.39-.399-.596-.589-.307-.304-.675-.465-1.062-.465s-.76.161-1.078.465l-.006.006L.701 2.425c-.406.405-.637.9-.688 1.472-.076.925.197 1.786.406 2.35.513 1.383 1.28 2.665 2.425 4.04a14.916 14.916 0 004.968 3.883c.73.346 1.703.754 2.79.824.067.003.137.006.2.006.732 0 1.348-.263 1.83-.785.003-.006.009-.01.012-.016.165-.2.355-.38.555-.573.136-.13.276-.266.412-.408.314-.326.479-.706.479-1.096 0-.392-.168-.77-.488-1.086l-1.74-1.744zm1.135 3.334c-.003 0-.003.003 0 0-.124.133-.25.253-.387.386a8.317 8.317 0 00-.612.633c-.32.342-.697.503-1.192.503-.047 0-.098 0-.146-.003-.941-.06-1.816-.427-2.473-.74a14.08 14.08 0 01-4.68-3.66C2.427 8.444 1.704 7.24 1.225 5.949.93 5.16.822 4.546.87 3.967c.032-.37.174-.677.438-.94l1.08-1.08c.156-.145.32-.225.483-.225.2 0 .361.12.463.222l.009.01c.193.18.377.367.57.566l.302.307.865.865c.337.335.337.645 0 .981-.091.092-.18.184-.272.272-.267.273-.52.526-.796.773-.006.006-.013.01-.016.016-.273.272-.222.538-.165.718l.01.029c.225.544.542 1.057 1.024 1.668l.003.003c.875 1.077 1.798 1.916 2.815 2.558.13.083.264.15.39.212.114.057.222.111.314.168l.038.022c.108.054.21.08.314.08a.678.678 0 00.482-.219l1.084-1.083c.108-.107.28-.237.48-.237.196 0 .357.123.456.231l.006.006 1.747 1.745c.326.323.326.655.003.99zM8.107 3.568c.83.14 1.585.532 2.188 1.133a4.034 4.034 0 011.135 2.185.425.425 0 00.422.354c.025 0 .047-.003.072-.006a.428.428 0 00.352-.494 4.88 4.88 0 00-1.372-2.643 4.892 4.892 0 00-2.648-1.371.43.43 0 00-.494.348.423.423 0 00.345.494zM14.993 6.617a8.03 8.03 0 00-2.26-4.353A8.049 8.049 0 008.373.007a.426.426 0 10-.139.842c1.477.25 2.825.95 3.896 2.016a7.168 7.168 0 012.02 3.891.425.425 0 00.422.355c.025 0 .047-.003.073-.007a.42.42 0 00.348-.487z" fill="#949494"/></svg>
